X:4636
L:1/8
Q:1/4=180
M:2/4
K:Emin
|: DEFG | A2 AF | A2 AF | A2 AF | DEFG | A2 AF | EF E2 | E2 z2 :: GABc | d2 dB | d2 dB | d2 dB | 
 GABc | d2 dB | AB A2 | A2 z2 :: DEFG | A2 ^G/F/E/ z/ | A2 ^G/F/E/ z/ | =F2 D/E/D | E=FED | 
 D^C D2 :: A,B,^CD | E2 ^C/B,/B,/ z/ | E2 ^C/B,/B,/ z/ | =FE/D/D/C/D :|

